X: 38646
T: Stormy Night, The
R: jig
M: 6/8
K: Dmajor
|:AFA def|~g2e fed|eAA dcA|GFG EFG|
AFA def|~g2e fed|cAA faf|1 gec dFG:|2 gec d2c||
|:dfa afd|BAF ABd|~g2e fed|ecA gfe|
dfa afd|BAF Adf|ged cde|1 fdc d2c:|2 fdc dAG||
|:FDD AFA|dcd edc|dAG FGA|BGE EFG|
AFA dcd|~e2d eaf|ged cde|1 fdc dAG:|2 fdc d2e||
|:fef dfa|bgb afd|~g2e fed|ecA gfe|
dcd AFD|GFG ABd|ged cde|1 fdc d2e:|2 fdc d2B||

